X:1
T:James Gibb editions
T:Candido leggiadretto - Marenzio
T:#
%%score [ 1 2 3 4 ]
L:1/8
Q:1/4=120
M:none
K:F
V:1 treble nm="Soprano"
V:2 treble nm="Alto"
V:3 treble-8 nm="Tenor"
V:4 bass nm="Bass"
V:1
"^Candido leggiadretto e caro guanto" G6 G2 G4 c3 B | %1
w: Can- di- do leg- gia-|
 A2 c2 B2 A2"^Luca Marenzio\n(c.1553-1599)" (d3 c/B/ ABcA | =B2 c4 B2) c8 | z16 | z8 z4 z2 c2 | %5
w: dret- to~e ca- ro guan\- * * * * * *|* * * to||Chi|
 A3 G A2 B2 c8 | z4 z2 c2 A3 G A2 B2 | c8 z4 A4- | A4 G8 ^F4 | G8 E8 | F2 G2 A4 F2 G4 A2 | %11
w: vi- de~al mon- do mai,|Chi vi- de~al mon- do|mai sí|* dol- ci|spo- glie?|Co- si~a- ves- s'io del bel|
 B4 A4 z8 | z8 A2 B2 c4 | A2 B4 c2 d6 D2- | DD (G4 ^F2) G4 z4 | z8 z4 d4- | d4 c2 B2 A3 B c2 d2 | %17
w: ve- lo,|Co- ~si~a- ves|s'io del~ bel ve- lo~al\-|* tre- tan\- * to|O|* in- con- stan- tia de l'hu-|
 B2 A2 G8 ^F4 | z4 d8 c4- | c2 A2 B4 A4 z2 A2 | (dcBA G2) c2 A2 F4 (B2- | B2 AG A4) D4 d4- | %22
w: ma- ne co- se!|Pur que\-|* sto~è fur- to e|vien * * * * chi me ne spo\-|* * * * glie. O|
 d4 c2 B2 A3 B c2 d2 | B2 A2 G8 ^F4 | z4 d8 c4- | c2 A2 B4 A8 | z8 z4 z2 G2 | %27
w: * in- con- stan- tia de l'hu-|ma- ne co- se!|Pur que\-|* sto~è fur- to|e|
 (AGAB c3 B/A/ G4) G2 (A2- | AGFE D2) G2 E2 c2 (A3 G/F/ | %29
w: vien, * * * * * * * e vien|* * * * * chi me ne spo\- * *|
 G4) G2 A2[Q:1/4=119] (A[Q:1/4=118]G[Q:1/4=117]F[Q:1/4=117]E[Q:1/4=116] D2)[Q:1/4=114] G2 | %30
w: * glie, e vien * * * * chi|
[Q:1/4=112] E2[Q:1/4=111] E2[Q:1/4=108] (F6[Q:1/4=105] E[Q:1/4=105]D[Q:1/4=103] E4) | %31
w: me ne spo\- * * *|
[Q:1/4=102] F16 |] %32
w: glie.|
V:2
 z4 C6 C2 C4 | F3 E D2 F2 (B,CDE FGAF | G2) E2 D4 E8 | z16 | z16 | z2 F2 D3 G F2 E2 F4 | %6
w: Can- di- do|leg- gia- dret- to~e ca- * * * * * * *|* ro guan- to|||Chi vi- de~al mon- do mai,|
 z8 z2 F2 D3 G | F2 E2 F4 z4 F4- | F4 E8 D4 | D8 ^C8 | D2 E2 F4 D2 E4 F2 | G4 F4 z8 | z8 F2 G2 A4 | %13
w: Chi vi- de~al|mon- do mai sí|* dol- ci|spo- glie?|Co- si~a- ves- s'io del bel|ve- lo,|Co- si~a- ves-|
 F2 G4 F2 F4 F4- | F2 _E4 (D4 C3 B, B,2- | B,2 A,G, A,4) B,8 | F4 A2 D2 F2 F2 E2 A,2 | %17
w: s'io del bel ve- lo~al\-|* tre- tan\- * * *|* * * * to,|O in- con- stan- tia de l'hu-|
 B,2 F,2 G,4 A,8 | D8 F6 E2 | F4 G4 z2 F2 (AGFE | D4) F4 G4 D2 (F2- | F2 ED C4) F8 | %22
w: ma- ne co- se!|Pur que- sto~è|fur- to e vien * * *|* chi me ne spo\-|* * * * glie.|
 F4 A2 D2 F2 F2 E2 A,2 | B,2 F,2 G,4 A,8 | D8 F6 E2 | F4 G4 z8 | z8 z4 z2 D2 | %27
w: O in- con- stan- tia de l'hu-|ma- ne co- se!|Pur que- sto~è|fur- to|e|
 (FEFG A3 G/F/ E4) E2 (F2- | FEDC B,2) D2 C2 F,2 (F4- | F2 ED E4) A,2 A2 (GFED | C2) C2 A,2 C2 C8 | %31
w: vien, * * * * * * * e vien|* * * * * chi me ne spo\-|* * * * glie, e vien * * *|* chi me ne spo-|
 C16 |] %32
w: glie.|
V:3
 z16 | z16 | z4 G6 G2 G4 | c3 B A2 c2 B2 A2 (d3 c/B/ | ABcA =B2 c4 B2) c4 | z8 z2 c2 A3 G | %6
w: ||Che co- pria|net- to~a- vo- rio~e fre- sche ro\- * *|* * * * * * * se|Chi vi- de~al|
 A2 B2 c8 z4 | z8 c8 | c12 A4 | B8 A8 | z16 | z4 F2 G2 A4 F2 G2- | G2 A2 B4 c8 | %13
w: mon- ~do mai|sí|dol- ci|spo- glie?||Co- si~a- ves- s'io del|* bel ve- lo,|
 z4 G2 A2 B4 A2 B2- | B2 G2 A2 B4 c2 d4 | c8 z4 d4- | d4 f2 B2 c2 c2 c2 f2 | d2 d4 c2 d8 | z16 | %19
w: Co- si~a- ves- s'io del|* bel ve- lo~al- tre- tan-|to, O|* in- con- stan- tia de l'hu-|ma- ne co- se!||
 z4 z2 G2 (FGAB c2) F2- | F2 G4 A4 (B3 cdB | c8) B8 | d4 f2 B2 c2 c2 c2 f2 | d2 d4 c2 d8 | z16 | %25
w: e vien * * * * chi|* me ne spo\- * * *|* glie.|O in- con- stan- tia de l'hu-|ma- ne- co- se!||
 z8 z4 d4- | d4 c6 A2 B4 | A4 z4 z2 c2 (cBAG | F4 G4 A4 F4 | c4 c2 c2 (fedc B2) B2 | AB c4) A2 G8 | %31
w: Pur|* que- sto~è fur-|to e vien * * *|* chi me ne|spo- glie, e vien * * * * chi|me * * ne spo-|
 F16 |] %32
w: glie.|
V:4
 z16 | z16 | z8 C,6 C,2 | C,4 F,3 E, D,2 F,2 (B,,C,D,E, | F,G,A,F, G,2) E,2 D,4 C,4 | %5
w: ||Che co-|pria net- to~a- vo- rio~e fre\- * * *|* * * * * sche ro- se|
 z8 z4 z2 F,2 | D,3 G, F,2 E,2 F,4 z4 | z8 F,8 | C,12 D,4 | G,,8 A,,8 | z16 | %11
w: Chi|vi- de~al mon- do mai|sí|dol- ci|spo- \-glie?||
 z4 D,2 E,2 F,4 D,2 E,2- | E,2 F,2 G,4 F,8 | z8 B,,2 C,2 D,4 | B,,2 C,4 D,2 _E,4 D,3 =E, | %15
w: Co- si~a\-- ves- s'io del|* bel ve- lo,|Co si~a- ves-|s'io del bel ve- lo~al- tre-|
 F,8 B,,4 B,4- | B,4 A,2 G,2 F,3 G, A,2 F,2 | G,2 D,2 _E,4 D,8 | z16 | z8 z2 F,2 (F,E,D,C, | %20
w: tan- to, O|* in- con- stan- tia de l'hu-|ma- ne co- se!||e vien * * *|
 B,,4) C,4 D,4 B,,4 | F,4 F,4 z4 B,4- | B,4 A,2 G,2 F,3 G, A,2 F,2 | G,2 D,2 _E,4 D,8 | z16 | %25
w: * chi me ne|spo- glie. O|* in- con- stan- tia de l'hu-|ma- ne co- se!||
 z8 D,8 | F,6 E,2 F,4 G,4 | z2 F,2 (F,G,A,B, C4) z4 | z16 | %29
w: Pur|que- sto~è fur- to|e vien * * * *||
"^Typeset by Allen Garvin (aurvondel@gmail.com) CC BY-NC 2.5" z2 C,2 (C,B,,A,,G,, F,,4) G,,4 | %30
w: e vien * * * * chi|
 A,,4 F,,4 C,8 | F,,16 |] %32
w: me ne spo-|glie.|

